X: 30386
T: Old Road To Garry, The
R: reel
M: 4/4
K: Dmajor
|:dF ~F2 ABdf|edBA BedB|AF ~F2 ABdf|~g2 ag f2 fe|
dF~F2 ABdf|edBA (3Bcd ef|g2 ag faaf|1 bfde eddz:|2 e2 de eddz||
|:~a2 fd Adfd|Beed efgb|~a2 fd Ad{e/f/}ed|gbag fddz|
~a2 fd Adfd|Beed efga|~b2 af f/g/f/e/dB|ABdg fedz:|

